src/16/actions/zoom-out-x.svg

<svg xmlns="http://www.w3.org/2000/svg" viewBox="0 0 16 16">
  <defs id="defs3051">
    <style type="text/css" id="current-color-scheme">
      .ColorScheme-Text {
        color:#5d656b;
      }
      </style>
  </defs>
 <path style="fill:currentColor;fill-opacity:1;stroke:none" 
       d="M 2 2 L 2 6 L 6 6 L 6 2 L 2 2 z M 7 2 L 7 3 L 9 3 L 12 3 L 13 3 L 13 4 L 13 7 L 13 9 L 13 12 L 13 13 L 12 13 L 10 13 L 10 14 L 12 14 L 14 14 L 14 13 L 14 12 L 14 9 L 14 7 L 14 4 L 14 3 L 14 2 L 13 2 L 12 2 L 9 2 L 7 2 z M 3 3 L 5 3 L 5 5 L 3 5 L 3 3 z M 4.828125 7.671875 L 2.7070312 9.7929688 L 2 10.5 L 4.828125 13.328125 L 5.5351562 12.621094 L 3.9140625 11 L 8.5703125 11 L 8.5703125 10 L 3.9140625 10 L 5.5351562 8.3789062 L 4.828125 7.671875 z "
     class="ColorScheme-Text"
     />
</svg>

<svg xmlns="http://www.w3.org/2000/svg" viewBox="0 0 16 16"><path d="M2 2v4h4V2H2zm5 0v1h6v10h-3v1h4V2H7zM3 3h2v2H3V3zm1.828 4.672L2.707 9.793 2 10.5l2.828 2.828.707-.707L3.915 11H8.57v-1H3.914l1.621-1.621-.707-.707z" fill="currentColor" color="#5d656b"/></svg>
